X:6
T:La chasse
R:Chanson
N:
D:(Malicorne)
O:France
Z:transcription (d'oreille) : <anamnese@laposte.net>
M:4/4
L:1/8
Q:1/4=115
K:G
B | e2 (3fga (3b-bg f2 | (3efg (3fed (3ed^c (3d^cB |
    e2 (3fga (3b-bg f2 | (3efg (3fed e3 f |
(3f-ff (3bbb (3a-ag f2 | (3gab (3d'-d'^c' b2-b B |
    e2 (3fga (3b-bg f2 | (3efg (3fed e3. B |
    e2 (3fga (3b-bg f2 | (3efg (3e-ed e3 B |
    e2 (3fga (3b-bg f2 | (3efg (3e-ed e3 f |
(3f-ff (3bbb (3a-ag f2 | (3gab (3d'-d'^c' b2-b B |
    e2 (3fga (3b-bg f2 | (3efg (3e-ed e3. z |
W:Oh que la chasse est belle, quand il y a de l'amour
W:Auprs de sa matresse, assis sur ses genoux
W:En lui disant la belle, mignonne embrassez-moi,
W:Permettez-moi la chasse, partout dans vos endroits
W:
W:Monsieur rpond la belle je ne sais refuser,
W:Mes terres, mes domaines vous pouvez y chassez,
W:Allons prenez vos armes, faites le tour du bois,
W:Je vous permets la chasse, partout dans mes endroits
W:
W:Je suis chasseur habile,  tirer mon fusil
W:Le chien de ma platine, il fait feu jour et nuit
W:Mon chien chasse le livre et moi la perdrix
W:Embrassons-nous la belle, je serai votre ami
W:
W:Chassons, chassons ensemble la nuit comme le jour,
W:Le livre aussi la caille et le gibier d'amour,
W:Chasseur frappe la pierre, ton fusil partira
W:De trou de la lumire il se dbouchera.
